flaticon/sewing/leather-1.svg

<svg xmlns="http://www.w3.org/2000/svg" width="32" height="32" viewBox="0 0 24 24">
    <path d="M 21.886719 7.464844 C 22.007812 7.386719 22.046875 7.226562 22.007812 7.105469 L 22.007812 7.066406 C 21.726562 5.703125 20.96875 4.503906 19.847656 3.664062 C 19.726562 3.582031 19.605469 3.542969 19.445312 3.621094 C 18.046875 4.101562 16.925781 4.101562 16.042969 3.582031 C 14.640625 2.742188 14.402344 0.742188 14.402344 0.742188 C 14.402344 0.582031 14.28125 0.460938 14.121094 0.421875 C 12.761719 -0.140625 11.238281 -0.140625 9.839844 0.421875 C 9.71875 0.460938 9.597656 0.582031 9.597656 0.742188 C 9.597656 0.742188 9.359375 2.703125 7.957031 3.582031 C 7.074219 4.144531 5.914062 4.144531 4.515625 3.621094 C 4.394531 3.542969 4.273438 3.582031 4.152344 3.664062 C 3.03125 4.503906 2.273438 5.703125 1.992188 7.066406 L 1.992188 7.105469 C 1.992188 7.226562 2.03125 7.386719 2.113281 7.464844 C 3.3125 8.667969 3.992188 10.46875 3.992188 12.390625 C 3.992188 14.3125 3.3125 16.113281 2.113281 17.3125 C 1.992188 17.394531 1.953125 17.554688 1.992188 17.675781 L 1.992188 17.714844 C 2.273438 19.074219 3.03125 20.277344 4.152344 21.117188 C 4.273438 21.199219 4.394531 21.238281 4.515625 21.199219 C 4.753906 21.117188 9.796875 19.394531 11.640625 23.757812 C 11.679688 23.917969 11.839844 24 12 24 C 12.160156 24 12.320312 23.917969 12.359375 23.71875 C 14.242188 19.394531 19.285156 21.078125 19.484375 21.15625 C 19.605469 21.238281 19.726562 21.199219 19.847656 21.117188 C 20.96875 20.277344 21.726562 19.074219 22.007812 17.714844 L 22.007812 17.675781 C 22.007812 17.554688 21.96875 17.394531 21.886719 17.316406 C 19.40625 14.832031 19.40625 9.949219 21.886719 7.464844 Z M 19.527344 20.316406 C 18.484375 20.035156 14.121094 19.035156 12 22.679688 C 10.71875 20.515625 8.636719 19.996094 6.957031 19.996094 C 5.835938 19.996094 4.875 20.238281 4.472656 20.355469 C 3.671875 19.675781 3.074219 18.753906 2.832031 17.714844 C 4.074219 16.394531 4.792969 14.472656 4.792969 12.390625 C 4.792969 10.308594 4.074219 8.386719 2.832031 7.027344 C 3.074219 5.984375 3.671875 5.0625 4.472656 4.382812 C 6.035156 4.902344 7.355469 4.863281 8.398438 4.222656 C 9.796875 3.34375 10.238281 1.660156 10.359375 1.019531 C 11.441406 0.660156 12.558594 0.660156 13.640625 1.019531 C 13.761719 1.660156 14.203125 3.34375 15.601562 4.222656 C 16.644531 4.863281 17.964844 4.902344 19.527344 4.382812 C 20.367188 5.0625 20.925781 5.984375 21.167969 7.027344 C 18.566406 9.828125 18.566406 14.871094 21.167969 17.675781 C 20.925781 18.714844 20.367188 19.636719 19.527344 20.316406 Z M 19.527344 20.316406"/>
    <path d="M12.519531 19.796875C12.359375 19.957031 12.160156 20.078125 12 20.238281 11.839844 20.078125 11.640625 19.917969 11.480469 19.796875 11.28125 19.675781 11.039062 19.714844 10.917969 19.875 10.800781 20.035156 10.839844 20.316406 11 20.4375 11.28125 20.597656 11.480469 20.796875 11.71875 21.039062 11.800781 21.117188 11.878906 21.15625 12 21.15625 12.121094 21.15625 12.199219 21.117188 12.28125 21.039062 12.519531 20.835938 12.761719 20.636719 13 20.4375 13.160156 20.316406 13.199219 20.035156 13.082031 19.875 12.960938 19.714844 12.679688 19.675781 12.519531 19.796875zM9.597656 18.835938C9.078125 18.636719 8.476562 18.515625 7.875 18.476562 7.636719 18.476562 7.476562 18.636719 7.4375 18.835938 7.394531 19.074219 7.597656 19.234375 7.796875 19.277344 8.355469 19.316406 8.878906 19.4375 9.359375 19.597656 9.398438 19.597656 9.4375 19.597656 9.476562 19.597656 9.636719 19.597656 9.796875 19.476562 9.839844 19.355469 9.917969 19.117188 9.796875 18.914062 9.597656 18.835938zM5.792969 18.476562C5.515625 18.515625 5.234375 18.554688 4.996094 18.59375 4.835938 18.394531 4.714844 18.234375 4.632812 18.035156 4.792969 17.835938 4.953125 17.59375 5.113281 17.355469 5.195312 17.152344 5.152344 16.914062 4.953125 16.792969 4.753906 16.714844 4.515625 16.753906 4.394531 16.953125 4.234375 17.234375 4.074219 17.515625 3.875 17.753906 3.792969 17.875 3.792969 18.035156 3.832031 18.15625 3.992188 18.59375 4.234375 18.957031 4.554688 19.316406 4.59375 19.394531 4.714844 19.4375 4.835938 19.4375 4.835938 19.4375 4.875 19.4375 4.914062 19.4375 5.234375 19.355469 5.554688 19.316406 5.875 19.277344 6.113281 19.234375 6.273438 19.035156 6.234375 18.835938 6.195312 18.59375 6.035156 18.433594 5.792969 18.476562zM5.953125 9.507812C5.914062 9.269531 5.675781 9.148438 5.472656 9.226562 5.234375 9.269531 5.113281 9.507812 5.195312 9.707031 5.355469 10.230469 5.433594 10.789062 5.515625 11.347656 5.554688 11.550781 5.714844 11.710938 5.914062 11.710938 5.914062 11.710938 5.953125 11.710938 5.953125 11.75 6.195312 11.710938 6.355469 11.507812 6.316406 11.308594 6.234375 10.707031 6.113281 10.109375 5.953125 9.507812zM5.914062 13.070312C5.675781 13.03125 5.515625 13.230469 5.472656 13.429688 5.433594 14.03125 5.3125 14.59375 5.152344 15.113281 5.113281 15.3125 5.234375 15.511719 5.433594 15.59375 5.472656 15.59375 5.515625 15.59375 5.554688 15.59375 5.753906 15.59375 5.914062 15.472656 5.914062 15.3125 6.074219 14.753906 6.195312 14.113281 6.273438 13.511719 6.273438 13.269531 6.113281 13.109375 5.914062 13.070312zM5.074219 7.425781C4.953125 7.1875 4.792969 6.945312 4.632812 6.746094 4.714844 6.546875 4.835938 6.386719 4.953125 6.226562 5.234375 6.265625 5.515625 6.304688 5.753906 6.34375 5.953125 6.34375 6.15625 6.183594 6.195312 5.984375 6.195312 5.785156 6.035156 5.585938 5.792969 5.542969 5.515625 5.503906 5.195312 5.464844 4.875 5.382812 4.714844 5.34375 4.554688 5.382812 4.472656 5.503906 4.195312 5.824219 3.953125 6.226562 3.792969 6.625 3.714844 6.746094 3.753906 6.90625 3.832031 7.027344 4.035156 7.265625 4.195312 7.546875 4.355469 7.828125 4.433594 7.945312 4.59375 8.027344 4.714844 8.027344 4.792969 8.027344 4.875 8.027344 4.914062 7.988281 5.113281 7.867188 5.195312 7.625 5.074219 7.425781zM9.359375 4.503906C8.917969 4.863281 8.4375 5.183594 7.875 5.34375 7.675781 5.425781 7.554688 5.664062 7.636719 5.863281 7.714844 6.023438 7.875 6.144531 8.035156 6.144531 8.078125 6.144531 8.117188 6.144531 8.117188 6.144531 8.757812 5.90625 9.359375 5.585938 9.878906 5.105469 10.039062 4.945312 10.078125 4.703125 9.917969 4.542969 9.757812 4.382812 9.519531 4.34375 9.359375 4.503906zM13 1.941406C12.960938 1.78125 12.839844 1.703125 12.679688 1.660156 12.238281 1.582031 11.761719 1.582031 11.28125 1.660156 11.121094 1.703125 11 1.78125 10.960938 1.941406 10.878906 2.261719 10.757812 2.542969 10.640625 2.824219 10.558594 3.023438 10.640625 3.261719 10.839844 3.34375 10.878906 3.382812 10.960938 3.382812 11 3.382812 11.160156 3.382812 11.28125 3.300781 11.28125 3.144531 11.398438 2.902344 11.519531 2.621094 11.601562 2.382812 11.839844 2.34375 12.039062 2.34375 12.28125 2.382812 12.398438 2.664062 12.480469 2.902344 12.601562 3.144531 12.679688 3.34375 12.921875 3.421875 13.121094 3.34375 13.320312 3.261719 13.402344 3.023438 13.320312 2.824219 13.199219 2.542969 13.082031 2.261719 13 1.941406zM15.964844 6.144531C16.125 6.144531 16.285156 6.023438 16.324219 5.863281 16.402344 5.625 16.285156 5.425781 16.082031 5.34375 15.523438 5.183594 15.042969 4.902344 14.601562 4.503906 14.441406 4.382812 14.203125 4.382812 14.042969 4.542969 13.921875 4.703125 13.921875 4.945312 14.082031 5.105469 14.601562 5.585938 15.203125 5.945312 15.84375 6.144531 15.882812 6.144531 15.921875 6.144531 15.964844 6.144531zM18.246094 6.34375C18.527344 6.34375 18.765625 6.265625 19.046875 6.226562 19.164062 6.386719 19.285156 6.546875 19.367188 6.746094 19.207031 6.945312 19.046875 7.1875 18.925781 7.425781 18.847656 7.625 18.886719 7.867188 19.085938 7.988281 19.164062 8.027344 19.207031 8.027344 19.285156 8.027344 19.40625 8.027344 19.527344 7.945312 19.605469 7.828125 19.765625 7.546875 19.925781 7.265625 20.125 7.027344 20.207031 6.90625 20.207031 6.746094 20.167969 6.625 20.007812 6.226562 19.765625 5.824219 19.484375 5.503906 19.367188 5.382812 19.246094 5.34375 19.085938 5.382812 18.765625 5.464844 18.484375 5.503906 18.164062 5.542969 17.925781 5.585938 17.765625 5.785156 17.804688 5.984375 17.84375 6.226562 18.003906 6.386719 18.246094 6.34375zM18.046875 11.710938L18.085938 11.710938C18.285156 11.710938 18.445312 11.589844 18.484375 11.347656 18.527344 10.75 18.644531 10.1875 18.804688 9.667969 18.84375 9.46875 18.726562 9.226562 18.527344 9.1875 18.324219 9.148438 18.125 9.269531 18.046875 9.46875 17.886719 10.027344 17.765625 10.667969 17.683594 11.269531 17.683594 11.46875 17.84375 11.667969 18.046875 11.710938zM18.445312 15.59375C18.484375 15.59375 18.527344 15.59375 18.527344 15.59375 18.765625 15.554688 18.886719 15.3125 18.804688 15.113281 18.644531 14.550781 18.566406 13.992188 18.484375 13.429688 18.445312 13.191406 18.285156 13.03125 18.046875 13.070312 17.804688 13.109375 17.644531 13.3125 17.683594 13.511719 17.765625 14.113281 17.886719 14.710938 18.046875 15.3125 18.125 15.472656 18.285156 15.59375 18.445312 15.59375zM18.925781 17.355469C19.046875 17.59375 19.207031 17.835938 19.367188 18.035156 19.246094 18.234375 19.125 18.433594 19.003906 18.59375 18.726562 18.554688 18.484375 18.515625 18.207031 18.476562 17.964844 18.476562 17.804688 18.636719 17.765625 18.835938 17.765625 19.035156 17.925781 19.234375 18.125 19.277344 18.445312 19.316406 18.765625 19.355469 19.085938 19.4375 19.125 19.4375 19.125 19.4375 19.164062 19.4375 19.285156 19.4375 19.40625 19.394531 19.484375 19.316406 19.804688 18.957031 20.046875 18.59375 20.207031 18.15625 20.285156 18.035156 20.246094 17.875 20.167969 17.753906 19.964844 17.515625 19.804688 17.234375 19.644531 16.953125 19.527344 16.753906 19.285156 16.675781 19.085938 16.792969 18.886719 16.914062 18.804688 17.152344 18.925781 17.355469zM16.125 18.433594C15.523438 18.515625 14.960938 18.636719 14.402344 18.796875 14.203125 18.875 14.082031 19.117188 14.160156 19.316406 14.242188 19.476562 14.402344 19.597656 14.5625 19.597656 14.601562 19.597656 14.640625 19.554688 14.640625 19.554688 15.121094 19.394531 15.644531 19.277344 16.203125 19.234375 16.445312 19.195312 16.605469 18.996094 16.5625 18.796875 16.523438 18.554688 16.363281 18.433594 16.125 18.433594zM16.125 18.433594"/>
</svg>

<svg xmlns="http://www.w3.org/2000/svg" width="32" height="32" viewBox="0 0 24 24">
    <path d="M21.887 7.465c.12-.078.16-.238.12-.36v-.039a5.657 5.657 0 0 0-2.16-3.402c-.12-.082-.242-.121-.402-.043-1.398.48-2.52.48-3.402-.039-1.402-.84-1.64-2.84-1.64-2.84 0-.16-.122-.281-.282-.32a5.642 5.642 0 0 0-4.281 0 .348.348 0 0 0-.242.32s-.239 1.961-1.641 2.84c-.883.563-2.043.563-3.441.04-.121-.079-.243-.04-.364.042a5.657 5.657 0 0 0-2.16 3.402v.04c0 .12.04.28.121.359 1.2 1.203 1.88 3.004 1.88 4.926 0 1.921-.68 3.722-1.88 4.921a.328.328 0 0 0-.12.364v.039a5.668 5.668 0 0 0 2.16 3.402c.12.082.242.121.363.082.238-.082 5.28-1.804 7.125 2.559.039.16.199.242.359.242.16 0 .32-.082.36-.281 1.882-4.324 6.925-2.64 7.124-2.563.121.082.243.043.364-.039a5.668 5.668 0 0 0 2.16-3.402v-.04c0-.12-.04-.28-.121-.359-2.48-2.484-2.48-7.367 0-9.851zm-2.36 12.851c-1.043-.28-5.406-1.28-7.527 2.364-1.281-2.164-3.363-2.684-5.043-2.684a9.228 9.228 0 0 0-2.484.36c-.801-.68-1.399-1.602-1.641-2.641 1.242-1.32 1.961-3.242 1.961-5.324s-.719-4.004-1.961-5.364c.242-1.043.84-1.965 1.64-2.644 1.563.52 2.883.48 3.926-.16 1.399-.88 1.84-2.563 1.961-3.203 1.082-.36 2.2-.36 3.282 0 .12.64.562 2.324 1.96 3.203 1.044.64 2.364.68 3.926.16a4.747 4.747 0 0 1 1.641 2.644c-2.602 2.801-2.602 7.844 0 10.649a4.75 4.75 0 0 1-1.64 2.64zm0 0"/>
    <path d="M12.52 19.797c-.16.16-.36.281-.52.441-.16-.16-.36-.32-.52-.441-.199-.121-.44-.082-.562.078-.117.16-.078.441.082.563.281.16.48.359.719.601.082.078.16.117.281.117.121 0 .2-.039.281-.117.239-.203.48-.402.719-.602.16-.12.2-.402.082-.562a.432.432 0 0 0-.562-.078zm0 0M9.598 18.836c-.52-.2-1.121-.32-1.723-.36a.433.433 0 0 0-.438.36c-.042.238.16.398.36.441.558.04 1.082.16 1.562.32h.118c.16 0 .32-.12.363-.242a.403.403 0 0 0-.242-.52zm0 0M5.793 18.477c-.277.039-.559.078-.797.117-.16-.2-.281-.36-.363-.559.16-.2.32-.441.48-.68.082-.203.04-.44-.16-.562-.2-.078-.437-.04-.558.16-.16.281-.32.563-.52.8a.476.476 0 0 0-.043.403c.16.438.402.801.723 1.16.039.079.16.122.28.122h.08c.32-.083.64-.122.96-.16.238-.044.398-.243.36-.442-.04-.242-.2-.402-.442-.36zm0 0M5.953 9.508a.357.357 0 0 0-.48-.281.355.355 0 0 0-.278.48c.16.523.239 1.082.32 1.64.04.204.2.364.4.364 0 0 .038 0 .038.039.242-.04.402-.242.363-.441-.082-.602-.203-1.2-.363-1.801zm0 0M5.914 13.07c-.238-.039-.398.16-.441.36a7.31 7.31 0 0 1-.32 1.683c-.04.2.081.399.28.48h.122c.199 0 .36-.12.36-.28.16-.56.28-1.2.358-1.801a.434.434 0 0 0-.359-.442zm0 0M5.074 7.426a4.061 4.061 0 0 0-.441-.68c.082-.2.203-.36.32-.52.281.04.563.079.8.118.2 0 .403-.16.442-.36 0-.199-.16-.398-.402-.441-.277-.04-.598-.078-.918-.16-.16-.04-.32 0-.402.12-.278.321-.52.724-.68 1.122-.078.121-.04.281.039.402.203.239.363.52.523.801.079.117.239.2.36.2.078 0 .16 0 .2-.04.198-.12.28-.363.16-.562zm0 0M9.36 4.504c-.442.36-.922.68-1.485.84-.2.082-.32.32-.238.52.078.16.238.28.398.28h.082c.64-.238 1.242-.558 1.762-1.039.16-.16.2-.402.039-.562-.16-.16-.398-.2-.559-.04zm0 0M13 1.941c-.04-.16-.16-.238-.32-.28a4.2 4.2 0 0 0-1.399 0c-.16.042-.281.12-.32.28-.082.32-.203.602-.32.883-.082.2 0 .438.199.52.039.039.12.039.16.039.16 0 .281-.082.281-.238.117-.243.239-.524.32-.762.239-.04.438-.04.68 0 .117.281.2.52.32.762.079.199.32.277.52.199.2-.082.281-.32.2-.52A5.882 5.882 0 0 1 13 1.941zm0 0M15.965 6.145c.16 0 .32-.122.36-.282a.401.401 0 0 0-.243-.52 3.693 3.693 0 0 1-1.48-.84.425.425 0 0 0-.559.04.43.43 0 0 0 .039.562c.52.48 1.121.84 1.762 1.04h.12zm0 0M18.246 6.344c.281 0 .52-.078.8-.117.118.16.24.32.321.52-.16.198-.32.44-.441.679-.078.199-.04.441.16.562.078.04.121.04.2.04.12 0 .241-.083.32-.2.16-.281.32-.562.519-.8a.476.476 0 0 0 .043-.403c-.16-.398-.402-.8-.684-1.121-.117-.121-.238-.16-.398-.121-.32.082-.602.12-.922.16-.238.043-.398.242-.36.441.04.243.2.403.442.36zm0 0M18.047 11.71h.039c.2 0 .36-.12.398-.362.043-.598.16-1.16.32-1.68.04-.2-.077-.441-.277-.48a.435.435 0 0 0-.48.28c-.16.56-.281 1.2-.363 1.802 0 .199.16.398.363.44zm0 0M18.445 15.594h.082a.354.354 0 0 0 .278-.48c-.16-.563-.239-1.122-.32-1.684-.04-.239-.2-.399-.438-.36-.242.04-.402.242-.363.442.082.601.203 1.199.363 1.8.078.16.238.282.398.282zm0 0M18.926 17.355c.12.239.281.48.441.68-.12.2-.242.399-.363.559-.277-.04-.52-.078-.797-.117a.434.434 0 0 0-.441.359c0 .2.16.398.359.441.32.04.64.078.96.16h.08a.46.46 0 0 0 .32-.12c.32-.36.562-.723.722-1.16.078-.122.04-.282-.039-.403-.203-.238-.363-.52-.523-.8-.118-.2-.36-.278-.56-.161-.198.121-.28.36-.16.562zm0 0M16.125 18.434c-.602.082-1.164.203-1.723.363-.199.078-.32.32-.242.52.082.16.242.28.402.28.04 0 .079-.042.079-.042a6.52 6.52 0 0 1 1.562-.32c.242-.04.402-.239.36-.438-.04-.242-.2-.363-.438-.363zm0 0"/>
</svg>
